X: 31
T:Rigadown,A. JWDM.30
M:6/8
L:1/8
S:J.Winder MS,Wyresdale,Lancs.,1789
R:Rigadown
O:England
A:Lancashire
Z:vmp.Taz Tarry
K:D
B|AFD G2 B|AGF GFD|E3E2B|AFD G2B|A2f ece|d3 D2:||!
:e|fga efg|fga fed|e3A3|""fga efg|fga fec|d3D2:|]
%Bars 2,11,12, reconstructed from missing corner.
